X: 1
T: Bruce
R: reel, air
N: Taught by Jenna Reid in BSFC workshop 2021-12-20
M: 4/4
L: 1/8
K: Gm
   (C DF) | G3 D B>A GA  | GD-D2 z(C D)F | G3 D (B>A) (c>B) | A4 z ||
|   A Bc  | d3 B c>B AG  | AF-F2 z(C D)F | G3 D _B/A/G (FA) | G4 z :|
|: (A Bc) | d3 d d2 (c>B)| (A c3) zc Bc  | d3 G  G>B A/(G/F)| F4 z ||
|  (d2 c) | A3 A B>A G>A | FC-C2 zC (DF) | G3 D _B/A/G (FA) | G4 z :|
